!!! OTL: Berkowitz381
!!! Chapter: 1
!!! Section: III
!!! Page: 94
!!! Mode: 
!!! Encoder: DJB
**kern
*staff1
*I"Piano
=1-
*clefF4
*k[f#c#]
*b:
*M9/8
4F#\
8B\
4F#\
8B\
8G\L
8F#\
8E\J
=2
4F#\
8B\
4G\
8B\
8F#\L
8E\
8D\J
=3
[4.C#/
8C#\L]
8D\
8E\J
8F#\
8r
8r
=4
[4.G#\
8G#\L]
8A#\
8G#\J
8F#\
8r
8r
=5
4B\
8F#\
4B\
8F#\
8G\L
8F#\
8E\J
=6
!!linebreak:original
4F#\
8D\
4F#\
8D\
8E\L
8D\
8C#\J
=7
8D/L
8C#/
8D/J
8E\L
8D\
8E\J
4.F#\
=8
[4.FF#/
8FF#/L]
8GG#/
8AA#/J
8BB/
8r
8r
=9
[4.F#\
8F#\L]
8G#\
8A#\J
8B\
8r
8r
==
*-
